assets/svg/add-square.svg

<?xml version="1.0" encoding="UTF-8"?>
<svg width="1000px" height="1000px" viewBox="0 0 1000 1000" version="1.1" xmlns="http://www.w3.org/2000/svg" xmlns:xlink="http://www.w3.org/1999/xlink">
    <!-- Generator: sketchtool 52.4 (67378) - http://www.bohemiancoding.com/sketch -->
    <title>add-square</title>
    <desc>Created with sketchtool.</desc>
    <g id="旧版图标(剩余)" stroke="none" stroke-width="1" fill="none" fill-rule="evenodd">
        <path d="M100,0 L900,-1.42108547e-14 C955.228475,2.46965787e-14 1000,44.771525 1000,100 L1000,900 C1000,955.228475 955.228475,1000 900,1000 L100,1000 C44.771525,1000 -7.4473172e-15,955.228475 -1.42108547e-14,900 L-1.42108547e-14,100 C-2.09743922e-14,44.771525 44.771525,5.27778704e-14 100,4.26325641e-14 Z M462.5,462.5 L275,462.5 C254.289322,462.5 237.5,479.289322 237.5,500 C237.5,520.710678 254.289322,537.5 275,537.5 L462.5,537.5 L462.5,725 C462.5,745.710678 479.289322,762.5 500,762.5 C520.710678,762.5 537.5,745.710678 537.5,725 L537.5,537.5 L725,537.5 C745.710678,537.5 762.5,520.710678 762.5,500 C762.5,479.289322 745.710678,462.5 725,462.5 L537.5,462.5 L537.5,275 C537.5,254.289322 520.710678,237.5 500,237.5 C479.289322,237.5 462.5,254.289322 462.5,275 L462.5,462.5 Z" id="添加" fill="#3283FA"></path>
    </g>
</svg>

<svg width="1000" height="1000" xmlns="http://www.w3.org/2000/svg"><path d="M100 0h800c55.228 0 100 44.772 100 100v800c0 55.228-44.772 100-100 100H100C44.772 1000 0 955.228 0 900V100C0 44.772 44.772 0 100 0zm362.5 462.5H275c-20.71 0-37.5 16.79-37.5 37.5s16.79 37.5 37.5 37.5h187.5V725c0 20.71 16.79 37.5 37.5 37.5s37.5-16.79 37.5-37.5V537.5H725c20.71 0 37.5-16.79 37.5-37.5s-16.79-37.5-37.5-37.5H537.5V275c0-20.71-16.79-37.5-37.5-37.5s-37.5 16.79-37.5 37.5v187.5z" fill="#3283FA" fill-rule="evenodd"/></svg>
